Numix-GalliumOS/64/mimetypes/wps-office-pot.svg

<svg xmlns="http://www.w3.org/2000/svg" xmlns:xlink="http://www.w3.org/1999/xlink" width="64px" height="64px" viewBox="0 0 64 64" version="1.1">
<g id="surface1">
<path style=" stroke:none;fill-rule:nonzero;fill:rgb(81.960784%,27.45098%,14.901961%);fill-opacity:1;" d="M 10.6875 0 C 9.3125 0 8 1.378906 8 2.8125 L 8 61.1875 C 8 62.539062 9.390625 64 10.6875 64 L 53.3125 64 C 54.609375 64 56 62.539062 56 61.1875 L 56 2.75 C 56 1.402344 54.597656 0 53.25 0 Z M 10.6875 0 "/>
<path style=" stroke:none;fill-rule:nonzero;fill:rgb(0%,0%,0%);fill-opacity:0.196078;" d="M 8 48 L 8 61.335938 C 8 62.632812 9.375 64 10.664062 64 L 53.335938 64 C 54.625 64 56 62.632812 56 61.335938 L 56 48 Z M 8 48 "/>
<path style=" stroke:none;fill-rule:nonzero;fill:rgb(100%,100%,100%);fill-opacity:1;" d="M 21.355469 51.128906 C 22.90625 51.128906 24.101562 51.417969 24.953125 51.984375 C 25.808594 52.542969 26.234375 53.453125 26.234375 54.722656 C 26.234375 56.003906 25.808594 56.9375 24.9375 57.511719 C 24.085938 58.078125 22.871094 58.363281 21.289062 58.363281 L 20.425781 58.363281 L 20.425781 61.988281 L 18 61.988281 L 18 51.394531 C 18.238281 51.351562 18.5 51.3125 18.789062 51.269531 C 19.089844 51.238281 19.394531 51.210938 19.699219 51.203125 C 20 51.179688 20.296875 51.164062 20.582031 51.15625 C 20.871094 51.140625 21.125 51.128906 21.355469 51.128906 M 21.625 52.992188 C 21.484375 52.992188 21.28125 52.992188 21.019531 53.007812 C 20.765625 53.007812 20.566406 53.015625 20.425781 53.042969 L 20.425781 56.511719 L 21.410156 56.511719 C 22.183594 56.511719 22.773438 56.371094 23.167969 56.109375 C 23.5625 55.832031 23.757812 55.363281 23.757812 54.707031 C 23.757812 54.082031 23.5625 53.640625 23.167969 53.386719 C 22.78125 53.125 22.273438 52.992188 21.625 52.992188 "/>
<path style=" stroke:none;fill-rule:nonzero;fill:rgb(100%,100%,100%);fill-opacity:1;" d="M 29.785156 56.609375 C 29.785156 57.132812 29.800781 57.625 29.84375 58.085938 C 29.890625 58.535156 29.992188 58.929688 30.121094 59.265625 C 30.261719 59.601562 30.457031 59.867188 30.710938 60.0625 C 30.957031 60.257812 31.292969 60.355469 31.714844 60.355469 C 32.121094 60.355469 32.449219 60.257812 32.695312 60.0625 C 32.960938 59.867188 33.15625 59.601562 33.289062 59.265625 C 33.433594 58.914062 33.527344 58.519531 33.566406 58.070312 C 33.617188 57.617188 33.648438 57.132812 33.648438 56.609375 C 33.648438 56.09375 33.617188 55.609375 33.566406 55.15625 C 33.527344 54.691406 33.433594 54.296875 33.289062 53.960938 C 33.15625 53.625 32.96875 53.363281 32.722656 53.164062 C 32.46875 52.96875 32.132812 52.871094 31.714844 52.871094 C 31.292969 52.871094 30.957031 52.96875 30.710938 53.164062 C 30.457031 53.363281 30.261719 53.632812 30.121094 53.976562 C 29.992188 54.3125 29.890625 54.707031 29.84375 55.15625 C 29.800781 55.609375 29.785156 56.09375 29.785156 56.609375 M 27.324219 56.609375 C 27.324219 54.765625 27.710938 53.371094 28.480469 52.433594 C 29.261719 51.484375 30.335938 51.015625 31.714844 51.015625 C 33.148438 51.015625 34.238281 51.484375 34.984375 52.433594 C 35.730469 53.371094 36.109375 54.765625 36.109375 56.609375 C 36.109375 58.460938 35.722656 59.855469 34.96875 60.808594 C 34.207031 61.742188 33.125 62.210938 31.738281 62.210938 C 30.300781 62.210938 29.203125 61.742188 28.441406 60.808594 C 27.695312 59.855469 27.324219 58.460938 27.324219 56.609375 "/>
<path style=" stroke:none;fill-rule:nonzero;fill:rgb(100%,100%,100%);fill-opacity:1;" d="M 46 51.253906 L 46 53.023438 L 42.785156 53.023438 L 42.785156 61.988281 L 40.339844 61.988281 L 40.339844 53.023438 L 37.132812 53.023438 L 37.132812 51.253906 L 46 51.253906 "/>
<path style=" stroke:none;fill-rule:nonzero;fill:rgb(100%,100%,100%);fill-opacity:1;" d="M 16 22 L 26 22 L 26 28 L 16 28 Z M 16 22 "/>
<path style=" stroke:none;fill-rule:nonzero;fill:rgb(100%,100%,100%);fill-opacity:1;" d="M 16 32 L 26 32 L 26 38 L 16 38 Z M 16 32 "/>
<path style=" stroke:none;fill-rule:nonzero;fill:rgb(100%,100%,100%);fill-opacity:1;" d="M 40 19.984375 L 40 28 L 48 28 C 48 23.570312 44.417969 19.984375 40 19.984375 Z M 40 19.984375 "/>
<path style=" stroke:none;fill-rule:nonzero;fill:rgb(100%,100%,100%);fill-opacity:1;" d="M 38.003906 22 C 33.585938 22 30 25.578125 30 30 C 30 34.421875 33.585938 38 38.003906 38 C 42.421875 38 46 34.421875 46 30 L 38.003906 30 Z M 38.003906 22 "/>
</g>
</svg>

<svg xmlns="http://www.w3.org/2000/svg" viewBox="0 0 64 64">
 <g>
  <path d="m 10.688 0 c -1.375 0 -2.688 1.379 -2.688 2.813 l 0 58.38 c 0 1.352 1.391 2.813 2.688 2.813 l 42.625 0 c 1.297 0 2.688 -1.461 2.688 -2.813 l 0 -58.44 c 0 -1.348 -1.402 -2.75 -2.75 -2.75 m -42.563 0" style="fill:#d04526;fill-opacity:1;stroke:none;fill-rule:nonzero"/>
  <path d="m 8 48 l 0 13.336 c 0 1.297 1.375 2.664 2.664 2.664 l 42.672 0 c 1.289 0 2.664 -1.367 2.664 -2.664 l 0 -13.336 m -48 0" style="fill:#000;fill-opacity:0.196;stroke:none;fill-rule:nonzero"/>
  <path d="m 21.355 51.13 c 1.551 0 2.746 0.289 3.598 0.855 c 0.855 0.559 1.281 1.469 1.281 2.738 c 0 1.281 -0.426 2.215 -1.297 2.789 c -0.852 0.566 -2.066 0.852 -3.648 0.852 l -0.863 0 l 0 3.625 l -2.426 0 l 0 -10.594 c 0.238 -0.043 0.5 -0.082 0.789 -0.125 c 0.301 -0.031 0.605 -0.059 0.91 -0.066 c 0.301 -0.023 0.598 -0.039 0.883 -0.047 c 0.289 -0.016 0.543 -0.027 0.773 -0.027 m 0.27 1.863 c -0.141 0 -0.344 0 -0.605 0.016 c -0.254 0 -0.453 0.008 -0.594 0.035 l 0 3.469 l 0.984 0 c 0.773 0 1.363 -0.141 1.758 -0.402 c 0.395 -0.277 0.59 -0.746 0.59 -1.402 c 0 -0.625 -0.195 -1.066 -0.59 -1.32 c -0.387 -0.262 -0.895 -0.395 -1.543 -0.395" style="fill:#fff;fill-opacity:1;stroke:none;fill-rule:nonzero"/>
  <path d="m 29.785 56.61 c 0 0.523 0.016 1.016 0.059 1.477 c 0.047 0.449 0.148 0.844 0.277 1.18 c 0.141 0.336 0.336 0.602 0.59 0.797 c 0.246 0.195 0.582 0.293 1 0.293 c 0.406 0 0.734 -0.098 0.98 -0.293 c 0.266 -0.195 0.461 -0.461 0.594 -0.797 c 0.145 -0.352 0.238 -0.746 0.277 -1.195 c 0.051 -0.453 0.082 -0.938 0.082 -1.461 c 0 -0.516 -0.031 -1 -0.082 -1.453 c -0.039 -0.465 -0.133 -0.859 -0.277 -1.195 c -0.133 -0.336 -0.32 -0.598 -0.566 -0.797 c -0.254 -0.195 -0.59 -0.293 -1.01 -0.293 c -0.422 0 -0.758 0.098 -1 0.293 c -0.254 0.199 -0.449 0.469 -0.59 0.813 c -0.129 0.336 -0.23 0.73 -0.277 1.18 c -0.043 0.453 -0.059 0.938 -0.059 1.453 m -2.461 0 c 0 -1.844 0.387 -3.238 1.156 -4.176 c 0.781 -0.949 1.855 -1.418 3.234 -1.418 c 1.434 0 2.523 0.469 3.27 1.418 c 0.746 0.938 1.125 2.332 1.125 4.176 c 0 1.852 -0.387 3.246 -1.141 4.199 c -0.762 0.934 -1.844 1.402 -3.23 1.402 c -1.438 0 -2.535 -0.469 -3.297 -1.402 c -0.746 -0.953 -1.117 -2.348 -1.117 -4.199" style="fill:#fff;fill-opacity:1;stroke:none;fill-rule:nonzero"/>
  <path d="m 46 51.25 l 0 1.77 l -3.215 0 l 0 8.965 l -2.445 0 l 0 -8.965 l -3.207 0 l 0 -1.77 l 8.867 0" style="fill:#fff;fill-opacity:1;stroke:none;fill-rule:nonzero"/>
  <path d="m 16 22 l 10 0 l 0 6 l -10 0 m 0 -6" style="fill:#fff;fill-opacity:1;stroke:none;fill-rule:nonzero"/>
  <path d="m 16 32 l 10 0 l 0 6 l -10 0 m 0 -6" style="fill:#fff;fill-opacity:1;stroke:none;fill-rule:nonzero"/>
  <path d="m 40 19.984 l 0 8.02 l 8 0 c 0 -4.43 -3.582 -8.02 -8 -8.02 m 0 0" style="fill:#fff;fill-opacity:1;stroke:none;fill-rule:nonzero"/>
  <path d="m 38 22 c -4.418 0 -8 3.578 -8 8 c 0 4.422 3.586 8 8 8 c 4.418 0 7.996 -3.578 7.996 -8 l -7.996 0 m 0 -8" style="fill:#fff;fill-opacity:1;stroke:none;fill-rule:nonzero"/>
 </g>
</svg>
